X: 45
T:Kerfunten Jig, The
R:jig
C:Hammy Hamilton
S:1st Version from Hammy, Achill 1998
Z:Hauke Steinberg
M:6/8
L:1/8
K:G
B2B BAG|dBd efg|ded edB|~A3 ABc|
~B3 BAG|dBd efg|ded gdB|AGF G3:||
~g3 gab|~e3 edB|~g3 gab|bag ~a3|
~g3 gab|~e3 edB|dBd gdB|1 AGF GBd:|2 AGF G2c||
